X: 18513
T: I Feel A Smile Coming On
R: jig
M: 6/8
K: Fmajor
K:Ebmaj
|:zG,A, B,CE|G3 FGE|AG F2 EF|GE (C4|C) FE EDC|B,B3 AG|
cAG FGE|FED (B3|B)AGGAB|Bc3de|decdef|f4 ed|
d2 c2 ed|d2 d2 ed|c4 eA|F6:|F2 D2 B,2|
K:Fmaj
|:A2 AA Bc|BAG AFD|G2 G2 AB|AFD GEC|
A,A A,A Bc|BAG AFD|G2 G2 AB|AFD GEC:|
|:d2 d2 ef|ecA dBG|c2 c2 de|fge fec|
d2 d2 ef|ecA dBG|c2 c2 de|1 fag fec:|
[2 agf gfe|fed edc|d2 d4|c2 B AFD|G2 E C (F2|F6)|E6|

